X: 40408
T: Tom Martin's
R: reel
M: 4/4
K: Amixolydian
eA A2 eAfA|Bdef gfec|dG G2 BGdG|Bdef g2 fg|
eA A2 eAfA|Bdef g2 fg|aged edBA|GABG A2 Bd:|
ea a2 ba a2|baab aged|eg g2 ag g2|agga gedg|
ea a2 ba a2|baaf g2 eg|aged edBA|GABG A2 Bd:|
e3 f edBA|Bdef gfec|dG G2 BGdG|Bdef g2 ag|
eA A2 eAfA|Bdef g2 fg|aged edBA|1 GABG A2 Bd:|2 GABG A4||

